X:1
T:Title
%%score { ( 1 3 ) | 2 }
L:1/8
M:3/4
K:Ab
V:1 treble nm="Grand Piano"
V:3 treble 
V:2 bass 
V:1
 z2 z2[Q:1/4=100] [Ec][Fd] | [Ec]3 B c>B | A4 AF | [CE]3 [CE] [EA][Ec] |[M:2/4] B4[K:bass] | %5
[M:1/4][K:treble] [Ac][Gd] |[M:3/4] [Ae]3 [Ac] [DGB][E_GA] | [Fd]4 cB | A3 [Ec] [Ec]<[DB] | %9
[M:2/4] [CA]4 |[M:1/4] [CE][CA] |[M:3/4] [Ec]2 [CA]2 FA | A2 [CE]2 [CA][Ec] | e3 c BA | %14
[M:2/4] [EGB]4 |[M:1/4] [CE][CA] |[M:3/4] [Ec]2 [CA]2 FA | F2 [CE]2 [CA][Ec] | %18
 [Ee]3 [Fd] [Ec][DB] |[M:2/4] [CA]4 |] %20
V:2
 z2 z2 [A,,A,][A,,A,] | [A,,A,]3 [E,G,E] [E,A,E]>[E,G,D] | [F,A,C]4 [F,A,D][D,A,D] | %3
 [A,,A,]3 [A,,A,] [C,A,][A,,A,] |[M:2/4] [E,G,E]4 |[M:1/4] [C,A,][B,,B,] | %6
[M:3/4] [A,,C]3 [A,,A,] B,,B,, | [D,A,]4 [E,A,E][=E,G,D] | [F,A,C]3 [C,A,] [E,A,]<[E,G,] | %9
[M:2/4] [A,,A,]4 |[M:1/4] [A,,A,][A,,A,] |[M:3/4] [A,,A,]2 [A,,A,]2 [D,A,D][F,A,D] | %12
 [A,F]2 [A,,A,]2 [A,,A,][A,,A,] | [A,CE]3 [A,CE] [G,DE][F,=DF] |[M:2/4] E,4 |[M:1/4] A,,[A,,A,] | %16
[M:3/4] [A,,A,]2 [A,,A,]2 [D,A,D][F,A,E] | [A,D]2 [A,,A,]2 [A,,A,][A,,A,] | %18
 [C,A,]3 [D,A,] [E,A,][E,G,] |[M:2/4] [A,,A,]4 |] %20
V:3
 x6 | x6 | x6 | x6 |[M:2/4] z2 z[K:bass] D, |[M:1/4][K:treble] x2 |[M:3/4] x6 | x6 | x6 | %9
[M:2/4] x4 |[M:1/4] x2 |[M:3/4] x6 | x6 | x6 |[M:2/4] x4 |[M:1/4] x2 |[M:3/4] x6 | x6 | x6 | %19
[M:2/4] x4 |] %20

